app/assets/images/payment_icons/litecoin.svg

<svg xmlns="http://www.w3.org/2000/svg" width="38" height="24" viewBox="-36 25 38 24" enable-background="new -36 25 38 24"><path fill="#fff" d="M-.4 49h-33.2c-1.3 0-2.4-1.1-2.4-2.4v-19.2c0-1.3 1.1-2.4 2.4-2.4h33.2c1.3 0 2.4 1.1 2.4 2.4v19.2c0 1.3-1.1 2.4-2.4 2.4z"/><path opacity=".25" fill="#A8AAAD" enable-background="new" d="M-.4 49h-33.2c-1.3 0-2.4-1.1-2.4-2.4v-19.2c0-1.3 1.1-2.4 2.4-2.4h33.1c1.4 0 2.5 1.1 2.5 2.4v19.2c0 1.3-1.1 2.4-2.4 2.4zm-33.2-23c-.8 0-1.4.6-1.4 1.4v19.2c0 .8.6 1.4 1.4 1.4h33.1c.8 0 1.5-.6 1.5-1.4v-19.2c0-.8-.6-1.4-1.4-1.4h-33.2z"/><circle fill="#58595B" cx="-17" cy="37" r="8.2"/><path fill="#fff" d="M-17.8 32.5l-1.2 4.5-1 .4-.3 1.1 1-.4-.7 2.7h6.9l.4-1.6h-4.3l.6-2.2 1.2-.4.3-1.1-1.2.5.9-3.5h-2.6z"/></svg>

<svg xmlns="http://www.w3.org/2000/svg" width="38" height="24" viewBox="-36 25 38 24"><path fill="#fff" d="M-.4 49h-33.2c-1.3 0-2.4-1.1-2.4-2.4V27.4c0-1.3 1.1-2.4 2.4-2.4H-.4C.9 25 2 26.1 2 27.4v19.2C2 47.9.9 49-.4 49z"/><path opacity=".25" fill="#A8AAAD" d="M-.4 49h-33.2c-1.3 0-2.4-1.1-2.4-2.4V27.4c0-1.3 1.1-2.4 2.4-2.4H-.5C.9 25 2 26.1 2 27.4v19.2C2 47.9.9 49-.4 49zm-33.2-23c-.8 0-1.4.6-1.4 1.4v19.2c0 .8.6 1.4 1.4 1.4H-.5c.8 0 1.5-.6 1.5-1.4V27.4C1 26.6.4 26-.4 26h-33.2z"/><circle fill="#58595B" cx="-17" cy="37" r="8.2"/><path fill="#fff" d="M-17.8 32.5L-19 37l-1 .4-.3 1.1 1-.4-.7 2.7h6.9l.4-1.6H-17l.6-2.2 1.2-.4.3-1.1-1.2.5.9-3.5h-2.6z"/></svg>
